images/icon-home.svg

<svg width="28" height="29" viewBox="0 0 28 29" fill="none" xmlns="http://www.w3.org/2000/svg">
<rect y="0.358887" width="28" height="28" rx="4" fill="#83D187"/>
<path d="M14.9395 18.9565H15.8184V21.3589H14.9395V18.9565Z" fill="#DDFFDF"/>
<path d="M13.1816 18.9565H14.0605V21.3589H13.1816V18.9565Z" fill="#DDFFDF"/>
<path d="M17.459 6.35889H11.541C11.2983 6.35889 11.1016 6.55564 11.1016 6.79834V21.3589H12.3027V18.5171C12.3027 18.2744 12.4995 18.0776 12.7422 18.0776H16.2578C16.5005 18.0776 16.6973 18.2744 16.6973 18.5171V21.3589H17.8984V6.79834C17.8984 6.55564 17.7017 6.35889 17.459 6.35889ZM13.1816 16.7593C13.1816 17.002 12.9849 17.1987 12.7422 17.1987C12.4995 17.1987 12.3027 17.002 12.3027 16.7593V15.8804C12.3027 15.6377 12.4995 15.4409 12.7422 15.4409C12.9849 15.4409 13.1816 15.6377 13.1816 15.8804V16.7593ZM13.1816 14.1226C13.1816 14.3653 12.9849 14.562 12.7422 14.562C12.4995 14.562 12.3027 14.3653 12.3027 14.1226V13.2437C12.3027 13.001 12.4995 12.8042 12.7422 12.8042C12.9849 12.8042 13.1816 13.001 13.1816 13.2437V14.1226ZM14.9395 16.7593C14.9395 17.002 14.7427 17.1987 14.5 17.1987C14.2573 17.1987 14.0605 17.002 14.0605 16.7593V15.8804C14.0605 15.6377 14.2573 15.4409 14.5 15.4409C14.7427 15.4409 14.9395 15.6377 14.9395 15.8804V16.7593ZM14.9395 14.1226C14.9395 14.3653 14.7427 14.562 14.5 14.562C14.2573 14.562 14.0605 14.3653 14.0605 14.1226V13.2437C14.0605 13.001 14.2573 12.8042 14.5 12.8042C14.7427 12.8042 14.9395 13.001 14.9395 13.2437V14.1226ZM16.6973 16.7593C16.6973 17.002 16.5005 17.1987 16.2578 17.1987C16.0151 17.1987 15.8184 17.002 15.8184 16.7593V15.8804C15.8184 15.6377 16.0151 15.4409 16.2578 15.4409C16.5005 15.4409 16.6973 15.6377 16.6973 15.8804V16.7593ZM16.6973 14.1226C16.6973 14.3653 16.5005 14.562 16.2578 14.562C16.0151 14.562 15.8184 14.3653 15.8184 14.1226V13.2437C15.8184 13.001 16.0151 12.8042 16.2578 12.8042C16.5005 12.8042 16.6973 13.001 16.6973 13.2437V14.1226ZM13.1816 11.4858C13.1816 11.7285 12.9849 11.9253 12.7422 11.9253C12.4995 11.9253 12.3027 11.7285 12.3027 11.4858V10.6069C12.3027 10.3642 12.4995 10.1675 12.7422 10.1675C12.9849 10.1675 13.1816 10.3642 13.1816 10.6069V11.4858ZM14.9395 11.4858C14.9395 11.7285 14.7427 11.9253 14.5 11.9253C14.2573 11.9253 14.0605 11.7285 14.0605 11.4858V10.6069C14.0605 10.3642 14.2573 10.1675 14.5 10.1675C14.7427 10.1675 14.9395 10.3642 14.9395 10.6069V11.4858ZM16.6973 11.4858C16.6973 11.7285 16.5005 11.9253 16.2578 11.9253C16.0151 11.9253 15.8184 11.7285 15.8184 11.4858V10.6069C15.8184 10.3642 16.0151 10.1675 16.2578 10.1675C16.5005 10.1675 16.6973 10.3642 16.6973 10.6069V11.4858ZM13.1816 8.84912C13.1816 9.09182 12.9849 9.28857 12.7422 9.28857C12.4995 9.28857 12.3027 9.09182 12.3027 8.84912V7.97021C12.3027 7.72752 12.4995 7.53076 12.7422 7.53076C12.9849 7.53076 13.1816 7.72752 13.1816 7.97021V8.84912ZM14.9395 8.84912C14.9395 9.09182 14.7427 9.28857 14.5 9.28857C14.2573 9.28857 14.0605 9.09182 14.0605 8.84912V7.97021C14.0605 7.72752 14.2573 7.53076 14.5 7.53076C14.7427 7.53076 14.9395 7.72752 14.9395 7.97021V8.84912ZM16.6973 8.84912C16.6973 9.09182 16.5005 9.28857 16.2578 9.28857C16.0151 9.28857 15.8184 9.09182 15.8184 8.84912V7.97021C15.8184 7.72752 16.0151 7.53076 16.2578 7.53076C16.5005 7.53076 16.6973 7.72752 16.6973 7.97021V8.84912Z" fill="#DDFFDF"/>
<path d="M21.5605 12.2183H18.7773V21.3589H21.5605C21.8032 21.3589 22 21.1621 22 20.9194V12.6577C22 12.415 21.8032 12.2183 21.5605 12.2183ZM20.8281 17.9312C20.8281 18.1738 20.6314 18.3706 20.3887 18.3706C20.146 18.3706 19.9492 18.1738 19.9492 17.9312V17.0522C19.9492 16.8096 20.146 16.6128 20.3887 16.6128C20.6314 16.6128 20.8281 16.8096 20.8281 17.0522V17.9312ZM20.8281 15.2944C20.8281 15.5371 20.6314 15.7339 20.3887 15.7339C20.146 15.7339 19.9492 15.5371 19.9492 15.2944V14.4155C19.9492 14.1728 20.146 13.9761 20.3887 13.9761C20.6314 13.9761 20.8281 14.1728 20.8281 14.4155V15.2944Z" fill="#DDFFDF"/>
<path d="M7.43945 12.2183C7.19676 12.2183 7 12.415 7 12.6577V20.9194C7 21.1621 7.19676 21.3589 7.43945 21.3589H10.2227V12.2183H7.43945ZM9.05078 17.9312C9.05078 18.1738 8.85402 18.3706 8.61133 18.3706C8.36863 18.3706 8.17188 18.1738 8.17188 17.9312V17.0522C8.17188 16.8096 8.36863 16.6128 8.61133 16.6128C8.85402 16.6128 9.05078 16.8096 9.05078 17.0522V17.9312ZM9.05078 15.2944C9.05078 15.5371 8.85402 15.7339 8.61133 15.7339C8.36863 15.7339 8.17188 15.5371 8.17188 15.2944V14.4155C8.17188 14.1728 8.36863 13.9761 8.61133 13.9761C8.85402 13.9761 9.05078 14.1728 9.05078 14.4155V15.2944Z" fill="#DDFFDF"/>
</svg>

<svg xmlns="http://www.w3.org/2000/svg" width="28" height="29" fill="none"><rect width="28" height="28" y=".359" fill="#83D187" rx="4"/><path fill="#DDFFDF" d="M14.94 18.956h.878v2.403h-.878v-2.403ZM13.182 18.956h.878v2.403h-.878v-2.403Z"/><path fill="#DDFFDF" d="M17.459 6.359h-5.918a.44.44 0 0 0-.44.44v14.56h1.202v-2.842a.44.44 0 0 1 .44-.44h3.515a.44.44 0 0 1 .44.44v2.842h1.2V6.799a.44.44 0 0 0-.439-.44Zm-4.277 10.4a.44.44 0 1 1-.88 0v-.879a.44.44 0 0 1 .88 0v.88Zm0-2.636a.44.44 0 1 1-.88 0v-.88a.44.44 0 0 1 .88 0v.88Zm1.758 2.636a.44.44 0 0 1-.88 0v-.879a.44.44 0 0 1 .88 0v.88Zm0-2.636a.44.44 0 0 1-.88 0v-.88a.44.44 0 0 1 .88 0v.88Zm1.757 2.636a.44.44 0 0 1-.879 0v-.879a.44.44 0 1 1 .88 0v.88Zm0-2.636a.44.44 0 0 1-.879 0v-.88a.44.44 0 1 1 .88 0v.88Zm-3.515-2.637a.44.44 0 1 1-.88 0v-.88a.44.44 0 0 1 .88 0v.88Zm1.758 0a.44.44 0 0 1-.88 0v-.88a.44.44 0 0 1 .88 0v.88Zm1.757 0a.44.44 0 0 1-.879 0v-.88a.44.44 0 1 1 .88 0v.88Zm-3.515-2.637a.44.44 0 1 1-.88 0V7.97a.44.44 0 0 1 .88 0v.88Zm1.758 0a.44.44 0 0 1-.88 0V7.97a.44.44 0 0 1 .88 0v.88Zm1.757 0a.44.44 0 0 1-.879 0V7.97a.44.44 0 1 1 .88 0v.88ZM21.56 12.218h-2.783v9.14h2.784A.44.44 0 0 0 22 20.92v-8.261a.44.44 0 0 0-.44-.44Zm-.732 5.713a.44.44 0 0 1-.879 0v-.879a.44.44 0 0 1 .88 0v.88Zm0-2.637a.44.44 0 1 1-.879 0v-.879a.44.44 0 0 1 .88 0v.88ZM7.44 12.218a.44.44 0 0 0-.44.44v8.261c0 .243.197.44.44.44h2.783v-9.14H7.439Zm1.61 5.713a.44.44 0 0 1-.878 0v-.879a.44.44 0 0 1 .879 0v.88Zm0-2.637a.44.44 0 0 1-.878 0v-.879a.44.44 0 0 1 .879 0v.88Z"/></svg>
